svg/fluentui-system-icons/ic_fluent_book_open_48_regular.svg

<svg width="48" height="48" viewBox="0 0 48 48" fill="none" xmlns="http://www.w3.org/2000/svg">
<path d="M20 8C21.6023 8 23.037 8.71784 24 9.84947C24.963 8.71784 26.3977 8 28 8H41.25C42.7688 8 44 9.23122 44 10.75V37.25C44 38.7688 42.7688 40 41.25 40H28C26.3977 40 24.963 39.2822 24 38.1505C23.037 39.2822 21.6023 40 20 40H6.75C5.23122 40 4 38.7688 4 37.25V10.75C4 9.23122 5.23122 8 6.75 8H20ZM22.75 34.75V13.25C22.75 11.7312 21.5188 10.5 20 10.5H6.75C6.61193 10.5 6.5 10.6119 6.5 10.75V37.25C6.5 37.3881 6.61193 37.5 6.75 37.5H20C21.5188 37.5 22.75 36.2688 22.75 34.75ZM25.25 13.25V34.75C25.25 36.2688 26.4812 37.5 28 37.5H41.25C41.3881 37.5 41.5 37.3881 41.5 37.25V10.75C41.5 10.6119 41.3881 10.5 41.25 10.5H28C26.4812 10.5 25.25 11.7312 25.25 13.25Z" fill="#212121"/>
</svg>

<svg xmlns="http://www.w3.org/2000/svg" width="48" height="48"><path d="M20 8c1.602 0 3.037.718 4 1.85A5.239 5.239 0 0 1 28 8h13.25A2.75 2.75 0 0 1 44 10.75v26.5A2.75 2.75 0 0 1 41.25 40H28a5.238 5.238 0 0 1-4-1.85A5.238 5.238 0 0 1 20 40H6.75A2.75 2.75 0 0 1 4 37.25v-26.5A2.75 2.75 0 0 1 6.75 8H20Zm2.75 26.75v-21.5A2.75 2.75 0 0 0 20 10.5H6.75a.25.25 0 0 0-.25.25v26.5c0 .138.112.25.25.25H20a2.75 2.75 0 0 0 2.75-2.75Zm2.5-21.5v21.5A2.75 2.75 0 0 0 28 37.5h13.25a.25.25 0 0 0 .25-.25v-26.5a.25.25 0 0 0-.25-.25H28a2.75 2.75 0 0 0-2.75 2.75Z"/></svg>
